X: 1
T: Ellis Stanton
C: James Gray
R: jig
B: Alex & James Gray "Tweeddale Collection" v.4 #3 p.43 #2,5
Z: 2017 John Chambers <jc:trillian.mit.edu>
S: PDF via strathspey.org message
N: Tune for Budapest Birl
M: 6/8
L: 1/8
K: D
A |\
"D"D2d- dAF | "G"GAB "A"ABc | "D"d2d- def | "Em"gab "A"aec |\
"D"d2d- dAF | "G"BAG "A"AFE | "D"D2d- def | "A"gec "D"d2 :|
c/d/ |\
"A"eAa "A/c#"gAa | "D"fAa "A"eAa | "A"eAa- "A/c#"aga | "D"faf e2c/d/ |\
"A"eAa "A/c#"gAa | "D"fAa "A"eAa- | "D"afa afa | "A"gec "D"d2 ||
c/d/ |\
"A"eAa "A/c#"gAa | "D"fAa "A"eAa | "A"eAa- "A/c#"aga | "D"faf "A"ecA |\
"D"D2d- dAF | "G"G2g- gdB | "A"A2a- aec | "A"aec "D"d2 |]
